X:1
T:Prelude
T:Prelude
T:BWV 943
T:Johann Sebastian Bach
C:Johann Sebastian Bach
%%score 1 2 3 4
L:1/8
M:3/4
K:C
V:1 treble 
V:2 treble 
V:3 bass 
V:4 bass 
V:1
 z cBAGF | EFGCB,F | E3 DEF | G2 E2 FG/A/ | Ggfedc | BcdG^Fc | B3 ABc | d2 B2 cd/e/ | d6- | %9
 ddcBAB | c3 edc | B6- | BBABcg | ^F4 G2- | G4 ^F2 | GAB^cde | f6- | ffefgd | ^c2 de A2 | d4 ^c2 | %20
 d6- | ddcBAG | ^FG A4- | AcBAG^F | E3 G c2- | c2 z edc | BcBABc | BGABcd | edca_bg | a6- | %30
 [fa]2 gfef | g6- g2 fede | f6- | f6- | f2 e2 d2 | d2 z g c2 | z c f4- | f2 edc_B | A2 =BcdB | %39
 G3 Gc_B | AG F4- | FFED E2- | EEDEFC | B,2 C4- | C2 B,4 | C2 z2 z2 | z6 | z GABcd | edcgaf | %49
 b3 c' f2- | fg d3 c | cBAGFE | DEFCB,F | E6 | DEFGAB | c4 z G | z EGB c2 |] x6 |] %58
V:2
 x4 x2 | x4 x2 | x4 x2 | x4 x2 | x4 x2 | x4 x2 | x4 x2 | x4 x2 | z cBAGF | E4 A2- | AG ^F4 | %11
 z AG=FED | E6- | EEDCB,C | DEA,B,CD | B,2 z AB^c | d3 c_BA | G6- | G4 FG | A_BEFGA | ^F4 G2 | %21
 A2 z2 z2 | z2 z DCE | D6- | DDCB,A,G | ^FGAFGA | G4 ^F2 | G z z2 z2 | CDEFGE | z2 A2 f2 | d6- | %31
 d2 cBAB x6 | c6- | cedcBA | B4 A2 | G2 c4- | cA B3 B | A2 z A dc | BA G4- | G2 F4- | F2 E4 | %41
 F3 EDC | B,2 x4 | x4 x2 | x4 x2 | x4 x2 | x4 x2 | EDCGAF | G6- | G2 c4 | f3 e d2- | de B4 | %52
 x4 x2 | x4 x2 | x4 x2 | D3 E F2- | FFED E2 |] C4 x2 |] %58
V:3
 x4 x2 | x4 x2 | x4 x2 | x4 x2 | x4 x2 | x4 x2 | x4 x2 | x4 x2 | x4 x2 | x4 x2 | x4 x2 | x4 x2 | %12
 x4 x2 | x4 x2 | x4 x2 | x4 x2 | x4 x2 | x4 x2 | x4 x2 | x4 x2 | x4 x2 | x4 x2 | x4 x2 | x4 x2 | %24
 x4 x2 | x4 x2 | x4 x2 | x4 x2 | x4 x2 | x4 x2 | x4 x2 | x4 x2 x6 | x4 x2 | x4 x2 | x4 x2 | x4 x2 | %36
 x4 x2 | x4 x2 | x4 x2 | x4 x2 | x4 x2 | x4 x2 | x2 z G,C_B, | A,6 | G,3 F,G,A, | D,E, F,A,G,F, | %46
 E,G,A,B,CD | x4 x2 | x4 x2 | x4 x2 | x4 x2 | x4 x2 | z2 F,2 A,2 | F,2 D,4 | z DC_B,A,G, | %55
 F,G,A,E,D,_A, | G,6- |] G,6 |] %58
V:4
 x4 x2 | x4 x2 | z CB,A,G,F, | E,F,G,C,B,,F, | E,2 C2 ^F,2 | G,2 B,2 D2 | G,G^FEDC | B,CDG,^F,C | %8
 B,2 G,2 B,2 | CB,A,G,^F,E, | D,E,D,C,B,,A,, | G,,2 z G,A,B, | CDCB, A,2 | D2 D,2 E,2 | %14
 C,2 D,2 D,,2 | G,,2 z G,F,E, | D,D,,E,,F,,G,,A,, | _B,,C,B,,A,,G,,B,, | A,,A,B,^CDE | %19
 FG, A,2 A,,2 | D,DCB,A,G, | ^F,G,A,D,C,E, | A,,D,C,B,,A,,G,, | ^F,,2 G,,A,, B,,2 | C,B,A,G,^F,E, | %25
 D,E,^F,C,B,,D, | G,,C, D,2 D,,2 | G,,2 z G,A,B, | x4 x2 | FGFEDC | B,CB,A,G,F, | %31
 E,F,E,D,C,B,, x6 | A,,_B,,A,,G,,F,,E,, | D,,2 E,,2 F,,2 | G,,G,A,B,CD | EDCGA^F | G3 =F EG | %37
 FEDCB,A, | G,2 CDEC | FEDEDC | B,G,C_B,A,G, | F,E, D,2 F,2 | G,G,,C,_B,,A,,G,, | F,,6- | %44
 F,,F,,E,,D,,E,,F,, | G,,6 | C,,4 z2 | z G,,A,,B,,C,D, | E,D,C,G,A,F, | G,F, E,2 E2 | %50
 DD,C,B,,A,,G,, | C,2 G,2 G,,2 | C,6- | C,6- | C,6 | C,6- | C,6- |] C,4 C,,2 |] %58

